komodo/Komodo-Biru/apps/scalable/emerald-theme-manager-icon.svg

<?xml version="1.0" encoding="UTF-8" standalone="no"?>
<!-- Created with Inkscape (http://www.inkscape.org/) -->

<svg
   xmlns:dc="http://purl.org/dc/elements/1.1/"
   xmlns:cc="http://creativecommons.org/ns#"
   xmlns:rdf="http://www.w3.org/1999/02/22-rdf-syntax-ns#"
   xmlns:svg="http://www.w3.org/2000/svg"
   xmlns="http://www.w3.org/2000/svg"
   xmlns:xlink="http://www.w3.org/1999/xlink"
   xmlns:sodipodi="http://sodipodi.sourceforge.net/DTD/sodipodi-0.dtd"
   xmlns:inkscape="http://www.inkscape.org/namespaces/inkscape"
   width="96"
   height="96"
   id="svg2"
   version="1.1"
   inkscape:version="0.48.1 r9760"
   sodipodi:docname="emerald-theme-manager-icon.svg">
  <defs
     id="defs4">
    <filter
       color-interpolation-filters="sRGB"
       inkscape:collect="always"
       id="filter6279">
      <feGaussianBlur
         inkscape:collect="always"
         stdDeviation="0.8"
         id="feGaussianBlur6281" />
    </filter>
    <linearGradient
       inkscape:collect="always"
       xlink:href="#linearGradient3700-4-2"
       id="linearGradient5801"
       gradientUnits="userSpaceOnUse"
       gradientTransform="translate(0,-7.8515622e-6)"
       x1="48"
       y1="1052.3622"
       x2="48"
       y2="902.36218" />
    <linearGradient
       id="linearGradient3700-4-2">
      <stop
         id="stop3702-4-8"
         style="stop-color:#2b930b"
         offset="0" />
      <stop
         id="stop3704-4"
         style="stop-color:#67d441"
         offset="1" />
    </linearGradient>
    <linearGradient
       y2="138.66"
       x2="48"
       y1="20.221001"
       x1="48"
       gradientUnits="userSpaceOnUse"
       id="linearGradient3106"
       xlink:href="#linearGradient3737-69"
       inkscape:collect="always" />
    <linearGradient
       id="linearGradient3737-69">
      <stop
         id="stop3739-33"
         style="stop-color:#fff"
         offset="0" />
      <stop
         id="stop3741-805"
         style="stop-color:#fff;stop-opacity:0"
         offset="1" />
    </linearGradient>
    <clipPath
       id="clipPath3613-66">
      <rect
         id="rect3615-40"
         style="fill:#ffffff"
         rx="6"
         ry="6"
         height="84"
         width="84"
         y="6"
         x="6" />
    </clipPath>
    <filter
       id="filter3794-04"
       height="1.3839999"
       width="1.3839999"
       color-interpolation-filters="sRGB"
       y="-0.192"
       x="-0.192">
      <feGaussianBlur
         id="feGaussianBlur3796-62"
         stdDeviation="5.28" />
    </filter>
  </defs>
  <sodipodi:namedview
     id="base"
     pagecolor="#ffffff"
     bordercolor="#666666"
     borderopacity="1.0"
     inkscape:pageopacity="0.0"
     inkscape:pageshadow="2"
     inkscape:zoom="3.959798"
     inkscape:cx="28.389459"
     inkscape:cy="57.490015"
     inkscape:document-units="px"
     inkscape:current-layer="layer1"
     showgrid="false"
     inkscape:window-width="1280"
     inkscape:window-height="725"
     inkscape:window-x="0"
     inkscape:window-y="25"
     inkscape:window-maximized="1" />
  <metadata
     id="metadata7">
    <rdf:RDF>
      <cc:Work
         rdf:about="">
        <dc:format>image/svg+xml</dc:format>
        <dc:type
           rdf:resource="http://purl.org/dc/dcmitype/StillImage" />
        <dc:title></dc:title>
      </cc:Work>
    </rdf:RDF>
  </metadata>
  <g
     inkscape:label="Layer 1"
     inkscape:groupmode="layer"
     id="layer1"
     transform="translate(0,-956.36217)">
    <g
       transform="translate(0,-1e-5)"
       id="g6483">
      <rect
         transform="translate(0,-7.8515622e-6)"
         y="964.36218"
         x="8"
         height="80"
         width="80"
         id="rect9283"
         style="fill:#000000;fill-opacity:1;stroke:none;filter:url(#filter6279)"
         rx="5"
         ry="5" />
      <rect
         ry="5"
         rx="5"
         style="fill:url(#linearGradient5801);fill-opacity:1;stroke:none"
         id="rect9285"
         width="80"
         height="80"
         x="8"
         y="964.36218" />
      <g
         transform="matrix(1.0826968,0,0,1.0826968,-4.3415908,-84.892945)"
         id="g5668">
        <path
           d="m 30.59543,984.17999 -7.116991,11.53332 H 37.73902 l -7.143424,-11.53332 z m 1.792298,0 7.117407,11.53332 7.117406,-11.53332 H 32.387728 z m 16.026945,0 -7.117406,11.53332 H 55.53208 l -7.11616,-11.53332 z m 1.792298,0 7.117407,11.53332 7.117406,-11.53332 H 50.206971 z m 16.026945,0 -7.143424,11.53332 H 73.351074 L 66.233667,984.17999 z M 23.477109,997.47967 47.037491,1027.768 38.621288,997.47967 H 23.477109 z m 16.910543,0 8.026522,30.28833 8.026523,-30.28833 H 40.387984 z m 17.819908,0 -8.416204,30.28833 23.561214,-30.28833 H 58.208391 z"
           style="fill:#ffffff"
           id="path2990"
           inkscape:connector-curvature="0" />
      </g>
      <g
         id="layer5"
         transform="translate(0,956.36218)">
        <rect
           x="15"
           y="15"
           width="66"
           height="66"
           ry="12"
           rx="12"
           clip-path="url(#clipPath3613-66)"
           style="opacity:0.1;fill:url(#linearGradient3106);stroke:#ffffff;stroke-width:0.5;stroke-linecap:round;filter:url(#filter3794-04)"
           id="rect3171" />
      </g>
    </g>
  </g>
</svg>

<?xml version="1.0" encoding="UTF-8" standalone="no"?>
<!-- Created with Inkscape (http://www.inkscape.org/) -->
<svg id="svg2" xmlns:rdf="http://www.w3.org/1999/02/22-rdf-syntax-ns#" xmlns="http://www.w3.org/2000/svg" height="96" width="96" version="1.1" xmlns:cc="http://creativecommons.org/ns#" xmlns:xlink="http://www.w3.org/1999/xlink" xmlns:dc="http://purl.org/dc/elements/1.1/">
 <defs id="defs4">
  <filter id="filter6279" color-interpolation-filters="sRGB">
   <feGaussianBlur id="feGaussianBlur6281" stdDeviation="0.8"/>
  </filter>
  <linearGradient id="linearGradient5801" y2="902.36" gradientUnits="userSpaceOnUse" x2="48" gradientTransform="translate(0 -.0000078516)" y1="1052.4" x1="48">
   <stop id="stop3702-4-8" style="stop-color:#2b930b" offset="0"/>
   <stop id="stop3704-4" style="stop-color:#67d441" offset="1"/>
  </linearGradient>
  <linearGradient id="linearGradient3106" y2="138.66" gradientUnits="userSpaceOnUse" y1="20.221" x2="48" x1="48">
   <stop id="stop3739-33" style="stop-color:#fff" offset="0"/>
   <stop id="stop3741-805" style="stop-color:#fff;stop-opacity:0" offset="1"/>
  </linearGradient>
  <clipPath id="clipPath3613-66">
   <rect id="rect3615-40" style="fill:#fff" rx="6" ry="6" height="84" width="84" y="6" x="6"/>
  </clipPath>
  <filter id="filter3794-04" width="1.384" y="-.192" x="-.192" height="1.384" color-interpolation-filters="sRGB">
   <feGaussianBlur id="feGaussianBlur3796-62" stdDeviation="5.28"/>
  </filter>
 </defs>
 <metadata id="metadata7">
  <rdf:RDF>
   <cc:Work rdf:about="">
    <dc:format>image/svg+xml</dc:format>
    <dc:type rdf:resource="http://purl.org/dc/dcmitype/StillImage"/>
    <dc:title/>
   </cc:Work>
  </rdf:RDF>
 </metadata>
 <g id="layer1" transform="translate(0 -956.36)">
  <g id="g6483" transform="translate(0,-1e-5)">
   <rect id="rect9283" ry="5" style="filter:url(#filter6279)" rx="5" transform="translate(0 -.0000078516)" height="80" width="80" y="964.36" x="8"/>
   <rect id="rect9285" style="fill:url(#linearGradient5801)" rx="5" ry="5" height="80" width="80" y="964.36" x="8"/>
   <g id="g5668" transform="matrix(1.0827 0 0 1.0827 -4.3416 -84.893)">
    <path id="path2990" style="fill:#fff" d="m30.595 984.18-7.117 11.533h14.261l-7.1434-11.533zm1.7923 0 7.1174 11.533 7.1174-11.533h-14.233zm16.027 0-7.1174 11.533h14.235l-7.1162-11.533zm1.7923 0 7.1174 11.533 7.1174-11.533h-14.233zm16.027 0-7.1434 11.533h14.261l-7.117-11.53zm-42.756 13.3 23.56 30.32-8.416-30.32h-15.144zm16.911 0 8.0265 30.288 8.0265-30.288h-16.052zm17.82 0-8.4162 30.288 23.561-30.288h-15.145z"/>
   </g>
   <g id="layer5" transform="translate(0 956.36)">
    <rect id="rect3171" style="opacity:.1;filter:url(#filter3794-04);stroke:#fff;stroke-linecap:round;stroke-width:.5;fill:url(#linearGradient3106)" clip-path="url(#clipPath3613-66)" rx="12" ry="12" height="66" width="66" y="15" x="15"/>
   </g>
  </g>
 </g>
</svg>
